images/chainlink.svg

<svg height="250" viewBox="0 0 250 250" width="250" xmlns="http://www.w3.org/2000/svg"><path d="m125 .480469-26.453125 13.136719-72.09375 35.984374-26.453125 13.140626v124.515624l26.453125 13.140626 72.753906 35.984374 26.453125 13.136719 26.457032-13.136719 71.429687-35.984374 26.453125-13.140626v-124.515624l-26.453125-13.140626-72.09375-35.984374zm-72.089844 160.503906v-71.96875l72.089844-35.984375 72.089844 35.984375v71.96875l-72.089844 35.984375zm0 0" fill="#2a5ada"/></svg>

<svg xmlns="http://www.w3.org/2000/svg" xmlns:xlink="http://www.w3.org/1999/xlink" width="250px" height="250px" viewBox="0 0 250 250" version="1.1">
<g id="surface1">
<path style=" stroke:none;fill-rule:nonzero;fill:rgb(16.470589%,35.294119%,85.490197%);fill-opacity:1;" d="M 125 0.480469 L 98.546875 13.617188 L 26.453125 49.601562 L 0 62.742188 L 0 187.257812 L 26.453125 200.398438 L 99.207031 236.382812 L 125.660156 249.519531 L 152.117188 236.382812 L 223.546875 200.398438 L 250 187.257812 L 250 62.742188 L 223.546875 49.601562 L 151.453125 13.617188 Z M 52.910156 160.984375 L 52.910156 89.015625 L 125 53.03125 L 197.089844 89.015625 L 197.089844 160.984375 L 125 196.96875 Z M 52.910156 160.984375 "/>
</g>
</svg>
